X:1
T:Title
%%score { ( 1 4 5 ) | ( 2 3 ) }
L:1/8
M:4/4
K:C
V:1 treble nm="Grand Piano"
V:4 treble 
V:5 treble 
V:2 bass 
V:3 bass 
V:1
 z4 z2[Q:1/4=94] [CE]>[DF] | [EG]>[FA] [EG]>[CE] [Ec]2 [Ec]>[GB] | [FA]>[GB] A>F d2 d>c | %3
 B>c B>A G>A G>D | E6 G>G | [Ec]>[EG] [Gc]>[Ec] B2 G>B | d>d d>d [Ec]2 [GB]>A | G>A B>c d>c e>d | %8
[M:3/4] [Ec]6 |[M:1/4] [CE]>[DF] | %10
[M:35/32] [EG]>[EG][EG]>[EG][FA]/ [EG]2- [EG]/(3:2:4[Ec]3/2-[Ec]/4[Fd]3/4-[Fd]/8 | %11
[M:4/4] (3:2:2[Ge]2 [Gc] [Ac]3/4 z/4 z (3[FA]/[EG]/- [EG]2 z2 | z2 c2- c/4 z/4 z/ z z2 | %13
[M:17/16] (9:8:16[^FA]2- [FA]/8[FB]-[FB]/-[FB]3/32[FA]/-[FA]/32G-G/-G3/32d/-d-d3/32G-G/-G3/32 z/32 (9:8:2G/-G/32 | %14
[M:4/4] z4 c2- c/4 z/4 z/ z |[M:9/8] z3 z/ [G_B]/-[GB]/4 z/4 z/ z z A2 |[M:4/4] z4 (3:2:2c2 c z2 | %17
[M:3/4] [Ec]6 |] %18
V:2
 z4 z2 [C,G,]>[C,G,] | [C,C]>[C,C] [C,C]>[C,G,] [C,G,]2 [C,G,]>[E,C] | %2
 [F,C]>[F,C] [F,CF]>[F,A,][K:treble] [F,A,F]2 [F,A,F]>[F,A,F] | %3
 [G,DF]>[G,DF] [G,DF]>[G,CF][K:bass] [G,B,D]>[G,B,D] [G,B,D]>[G,B,] | [C,G,C]6 G,>G, | %5
 [C,G,]>[C,C] [E,C]>[C,G,][K:treble] [G,D]2 [G,B,D]>[G,DG] | %6
 [G,B,F]>[G,B,F] [G,B,F]>[G,B,F][K:bass] [C,C]2 z z/[K:treble] F/ | %7
 [G,CE]>[G,CE] [G,CE]>[G,CE] [G,B,F]>[G,E] [G,B,G]>[G,B,F] |[M:3/4][K:bass] [C,C]6 | %9
[M:1/4] [C,G,]>[C,G,] | %10
[M:35/32] [C,C]>[C,C][C,C]>[C,C][C,C]/ [C,C]2- [C,C]/(3:2:4[C,G,]3/2-[C,G,]/4[C,G,]3/4-[C,G,]/8 | %11
[M:4/4] z2 z/ [F,C]3/2- [F,C]/4 z/4 z/ z z2 | z2 [A,EA]2- [A,EA]/4 z/4 z/ z[K:bass] z2 | %13
[M:17/16] (9:8:16[D,C]2- [D,C]/8[D,D]-[D,D]/-[D,D]3/32[D,C]/-[D,C]/32[G,B,]-[K:treble][G,B,]/-[G,B,]3/32-[G,B,F]/-[G,B,F]-[G,B,F]3/32G,-[K:bass]G,/-G,3/32 z/32 (9:8:2G,/-G,/32 | %14
[M:4/4][K:treble] z4[K:bass] C2- C/4 z/4 z/ z |[M:9/8] (4:3:4E,2 E,/E,/-E,- E, F,2- F,F,>[F,C] | %16
[M:4/4][K:treble] (5:4:5[G,CG]2 [G,CG]/ [G,F]/-[G,F]3/2[G,F]/[K:bass] z4 |[M:3/4] [C,G,]6 |] %18
V:3
 x8 | x8 | x4[K:treble] x4 | x4[K:bass] x4 | x8 | x4[K:treble] x4 | %6
 z4[K:bass] z2 [F,C]2[K:treble] | x8 |[M:3/4][K:bass] x6 |[M:1/4] x2 |[M:35/32] x35/4 | %11
[M:4/4] (3:2:2[C,C]2 [E,C] [F,C]3/4 z/4 z (3[C,C]/[C,C]/- [C,C]2 z2 | %12
 (3:2:2[A,EA]2 [A,EA] z2 (5:4:4[D,D]2[K:bass] [D,D]/ [D,D]/- [D,D]2 | %13
[M:17/16] x245/64[K:treble] x17/6[K:bass] x123/64 | %14
[M:4/4][K:treble] (5:4:5C2 G,/ C/-C3/2G,/[K:bass] z2 (3:2:2C,2 C, | %15
[M:9/8] z3 z/ E,/-E,/4 z/4 z/ z z3 | %16
[M:4/4][K:treble] z4[K:bass] (5:4:4[G,E]2 [G,E]/ [G,,G,]3/2[G,,G,] |[M:3/4] x6 |] %18
V:4
 x8 | x8 | x8 | x8 | x8 | x8 | x8 | x8 |[M:3/4] x6 |[M:1/4] x2 |[M:35/32] x35/4 | %11
[M:4/4] z2 z/ [FA]3/2- [FA]/4 z/4 z/ z z2 | (3:2:2c2 c z2 (5:4:4[GB]2 [GB]/ [GB]/- [GB]2 | %13
[M:17/16] x343/40 |[M:4/4] (5:4:5c2 G/ c/-c3/2G/ z2 (3:2:2[CEG]2 [CEG] | %15
[M:9/8] (4:3:4[CG_B]2 [CGB]/[CGB]/-[CGB]- [CGB]/C/ F2- F-[C-Fc-]/<[Cc]/-[Cc]/-[CA-cd-]/4[Ad]/4 | %16
[M:4/4] (5:4:5e2 e/ d/-d3/2d/ z2 (3[DB][Ec][Fd] |[M:3/4] x6 |] %18
V:5
 x8 | x8 | x8 | x8 | x8 | x8 | x8 | x8 |[M:3/4] x6 |[M:1/4] x2 |[M:35/32] x35/4 |[M:4/4] x8 | x8 | %13
[M:17/16] x343/40 |[M:4/4] x8 |[M:9/8] z3 z [CA]2- [CA] z z |[M:4/4] x8 |[M:3/4] x6 |] %18

